Newaita-dark/actions/symbolic/view-filter-rtl-symbolic.svg

<svg height="16" viewBox="0 0 16 16" width="16" xmlns="http://www.w3.org/2000/svg"><g fill="#e0e0e0"><path d="m3.308594 2.769531h-.664063c-.363281 0-.660156.296875-.660156.664063v.660156c0 .367188.296875.660156.660156.660156h.664063c.363281 0 .660156-.292968.660156-.660156v-.660156c0-.367188-.296875-.664063-.660156-.664063zm0 0"/><path d="m6.285156 2.769531h-.664062c-.363282 0-.660156.296875-.660156.664063v.660156c0 .367188.296874.660156.660156.660156h.664062c.363282 0 .660156-.292968.660156-.660156v-.660156c0-.367188-.296874-.664063-.660156-.664063zm0 0"/><path d="m3.308594 7.070312h-.664063c-.363281 0-.660156.296876-.660156.664063v.660156c0 .363281.296875.660157.660156.660157h.664063c.363281 0 .660156-.296876.660156-.660157v-.660156c0-.367187-.296875-.664063-.660156-.664063zm0 0"/><path d="m8.65625 2.109375h-.113281c-.332031 0-.605469.296875-.605469.660156v10.585938c0 .367187.273438.660156.605469.660156h.113281c.335938 0 .605469-.292969.605469-.660156v-10.585938c0-.363281-.269531-.660156-.605469-.660156zm0 0"/><path d="m6.285156 7.070312h-.664062c-.363282 0-.660156.296876-.660156.664063v.660156c0 .363281.296874.660157.660156.660157h.664062c.363282 0 .660156-.296876.660156-.660157v-.660156c0-.367187-.296874-.664063-.660156-.664063zm0 0"/><path d="m3.308594 11.371094h-.664063c-.363281 0-.660156.296875-.660156.660156v.664062c0 .363282.296875.660157.660156.660157h.664063c.363281 0 .660156-.296875.660156-.660157v-.664062c0-.363281-.296875-.660156-.660156-.660156zm0 0"/><path d="m6.285156 11.371094h-.664062c-.363282 0-.660156.296875-.660156.660156v.664062c0 .363282.296874.660157.660156.660157h.664062c.363282 0 .660156-.296875.660156-.660157v-.664062c0-.363281-.296874-.660156-.660156-.660156zm0 0"/><path d="m13.5625 9.054688h-2.976562c-.183594 0-.332032.148437-.332032.332031v.660156c0 .183594.148438.332031.332032.332031h2.976562c.179688 0 .328125-.148437.328125-.332031v-.660156c0-.183594-.148437-.332031-.328125-.332031zm0 0"/><path d="m13.5625 2.769531h-2.976562c-.183594 0-.332032.148438-.332032.332031v.660157c0 .183593.148438.332031.332032.332031h2.976562c.179688 0 .328125-.148438.328125-.332031v-.660157c0-.183593-.148437-.332031-.328125-.332031zm0 0"/><path d="m13.5625 12.03125h-2.976562c-.183594 0-.332032.148438-.332032.332031v.660157c0 .183593.148438.332031.332032.332031h2.976562c.179688 0 .328125-.148438.328125-.332031v-.660157c0-.183593-.148437-.332031-.328125-.332031zm0 0"/><path d="m13.5625 5.746094h-2.976562c-.183594 0-.332032.148437-.332032.332031v.660156c0 .183594.148438.332031.332032.332031h2.976562c.179688 0 .328125-.148437.328125-.332031v-.660156c0-.183594-.148437-.332031-.328125-.332031zm0 0"/></g></svg>

<?xml version="1.0" encoding="UTF-8"?>
<svg xmlns="http://www.w3.org/2000/svg" xmlns:xlink="http://www.w3.org/1999/xlink" width="16px" height="16px" viewBox="0 0 16 16" version="1.1">
<g id="surface1">
<path style=" stroke:none;fill-rule:nonzero;fill:rgb(87.843138%,87.843138%,87.843138%);fill-opacity:1;" d="M 3.308594 2.769531 L 2.644531 2.769531 C 2.28125 2.769531 1.984375 3.066406 1.984375 3.433594 L 1.984375 4.09375 C 1.984375 4.460938 2.28125 4.753906 2.644531 4.753906 L 3.308594 4.753906 C 3.671875 4.753906 3.96875 4.460938 3.96875 4.09375 L 3.96875 3.433594 C 3.96875 3.066406 3.671875 2.769531 3.308594 2.769531 Z M 3.308594 2.769531 "/>
<path style=" stroke:none;fill-rule:nonzero;fill:rgb(87.843138%,87.843138%,87.843138%);fill-opacity:1;" d="M 6.285156 2.769531 L 5.621094 2.769531 C 5.257812 2.769531 4.960938 3.066406 4.960938 3.433594 L 4.960938 4.09375 C 4.960938 4.460938 5.257812 4.753906 5.621094 4.753906 L 6.285156 4.753906 C 6.648438 4.753906 6.945312 4.460938 6.945312 4.09375 L 6.945312 3.433594 C 6.945312 3.066406 6.648438 2.769531 6.285156 2.769531 Z M 6.285156 2.769531 "/>
<path style=" stroke:none;fill-rule:nonzero;fill:rgb(87.843138%,87.843138%,87.843138%);fill-opacity:1;" d="M 3.308594 7.070312 L 2.644531 7.070312 C 2.28125 7.070312 1.984375 7.367188 1.984375 7.734375 L 1.984375 8.394531 C 1.984375 8.757812 2.28125 9.054688 2.644531 9.054688 L 3.308594 9.054688 C 3.671875 9.054688 3.96875 8.757812 3.96875 8.394531 L 3.96875 7.734375 C 3.96875 7.367188 3.671875 7.070312 3.308594 7.070312 Z M 3.308594 7.070312 "/>
<path style=" stroke:none;fill-rule:nonzero;fill:rgb(87.843138%,87.843138%,87.843138%);fill-opacity:1;" d="M 8.65625 2.109375 L 8.542969 2.109375 C 8.210938 2.109375 7.9375 2.40625 7.9375 2.769531 L 7.9375 13.355469 C 7.9375 13.722656 8.210938 14.015625 8.542969 14.015625 L 8.65625 14.015625 C 8.992188 14.015625 9.261719 13.722656 9.261719 13.355469 L 9.261719 2.769531 C 9.261719 2.40625 8.992188 2.109375 8.65625 2.109375 Z M 8.65625 2.109375 "/>
<path style=" stroke:none;fill-rule:nonzero;fill:rgb(87.843138%,87.843138%,87.843138%);fill-opacity:1;" d="M 6.285156 7.070312 L 5.621094 7.070312 C 5.257812 7.070312 4.960938 7.367188 4.960938 7.734375 L 4.960938 8.394531 C 4.960938 8.757812 5.257812 9.054688 5.621094 9.054688 L 6.285156 9.054688 C 6.648438 9.054688 6.945312 8.757812 6.945312 8.394531 L 6.945312 7.734375 C 6.945312 7.367188 6.648438 7.070312 6.285156 7.070312 Z M 6.285156 7.070312 "/>
<path style=" stroke:none;fill-rule:nonzero;fill:rgb(87.843138%,87.843138%,87.843138%);fill-opacity:1;" d="M 3.308594 11.371094 L 2.644531 11.371094 C 2.28125 11.371094 1.984375 11.667969 1.984375 12.03125 L 1.984375 12.695312 C 1.984375 13.058594 2.28125 13.355469 2.644531 13.355469 L 3.308594 13.355469 C 3.671875 13.355469 3.96875 13.058594 3.96875 12.695312 L 3.96875 12.03125 C 3.96875 11.667969 3.671875 11.371094 3.308594 11.371094 Z M 3.308594 11.371094 "/>
<path style=" stroke:none;fill-rule:nonzero;fill:rgb(87.843138%,87.843138%,87.843138%);fill-opacity:1;" d="M 6.285156 11.371094 L 5.621094 11.371094 C 5.257812 11.371094 4.960938 11.667969 4.960938 12.03125 L 4.960938 12.695312 C 4.960938 13.058594 5.257812 13.355469 5.621094 13.355469 L 6.285156 13.355469 C 6.648438 13.355469 6.945312 13.058594 6.945312 12.695312 L 6.945312 12.03125 C 6.945312 11.667969 6.648438 11.371094 6.285156 11.371094 Z M 6.285156 11.371094 "/>
<path style=" stroke:none;fill-rule:nonzero;fill:rgb(87.843138%,87.843138%,87.843138%);fill-opacity:1;" d="M 13.5625 9.054688 L 10.585938 9.054688 C 10.402344 9.054688 10.253906 9.203125 10.253906 9.386719 L 10.253906 10.046875 C 10.253906 10.230469 10.402344 10.378906 10.585938 10.378906 L 13.5625 10.378906 C 13.742188 10.378906 13.890625 10.230469 13.890625 10.046875 L 13.890625 9.386719 C 13.890625 9.203125 13.742188 9.054688 13.5625 9.054688 Z M 13.5625 9.054688 "/>
<path style=" stroke:none;fill-rule:nonzero;fill:rgb(87.843138%,87.843138%,87.843138%);fill-opacity:1;" d="M 13.5625 2.769531 L 10.585938 2.769531 C 10.402344 2.769531 10.253906 2.917969 10.253906 3.101562 L 10.253906 3.761719 C 10.253906 3.945312 10.402344 4.09375 10.585938 4.09375 L 13.5625 4.09375 C 13.742188 4.09375 13.890625 3.945312 13.890625 3.761719 L 13.890625 3.101562 C 13.890625 2.917969 13.742188 2.769531 13.5625 2.769531 Z M 13.5625 2.769531 "/>
<path style=" stroke:none;fill-rule:nonzero;fill:rgb(87.843138%,87.843138%,87.843138%);fill-opacity:1;" d="M 13.5625 12.03125 L 10.585938 12.03125 C 10.402344 12.03125 10.253906 12.179688 10.253906 12.363281 L 10.253906 13.023438 C 10.253906 13.207031 10.402344 13.355469 10.585938 13.355469 L 13.5625 13.355469 C 13.742188 13.355469 13.890625 13.207031 13.890625 13.023438 L 13.890625 12.363281 C 13.890625 12.179688 13.742188 12.03125 13.5625 12.03125 Z M 13.5625 12.03125 "/>
<path style=" stroke:none;fill-rule:nonzero;fill:rgb(87.843138%,87.843138%,87.843138%);fill-opacity:1;" d="M 13.5625 5.746094 L 10.585938 5.746094 C 10.402344 5.746094 10.253906 5.894531 10.253906 6.078125 L 10.253906 6.738281 C 10.253906 6.921875 10.402344 7.070312 10.585938 7.070312 L 13.5625 7.070312 C 13.742188 7.070312 13.890625 6.921875 13.890625 6.738281 L 13.890625 6.078125 C 13.890625 5.894531 13.742188 5.746094 13.5625 5.746094 Z M 13.5625 5.746094 "/>
</g>
</svg>
